X:78
T:Thadelo's
R:slide
Z:id:hn-slide-78
M:6/8
L:1/8
K:A
BAB cBA | B2A F2A | A2B c2d | e3 e2A |
BAB cBA | B2A F2A | A2B c2B |1 A3 A2B :|2 A3 Ace ||
|: f2e cBA | B2A F2f | f2e c2d | e3 ece |
f2e cBA | B2A F2A| A2B c2B |1 A3 Ace:|2 A3 A2B||
<end>
<start>
